X:27
T:Karjalan Poikia  (Karelian boys)
M:2/4
L:1/16
Q:1/4=100
R:polka
K:G
|: "G" [d3B3][dB] [d2B2][d2B2] | ~d2^cd e2d2 |
[B3G3][BG] [B2G2][B2G2] | ~B2^AB c2B2 | "D" A2AA FDFG | !
A2AA FDFG | [1 AFDF d3c | "G" c2B2 B4 :|
[2 AFDF B3A | "G" ~A2G2 G4 || !
|: "G" DEDC B,2D2 | G3G GFGA | B3B A2B2 | "C" [cE] z3 "G" [B4D4] | !
"D" A2AA FDFG | A2AA FDFG | AFDF B3A | "G" ~A2G2 G4 :||
